X:1490
T:Green Jacket, The
R:reel
N:"collected from Cronin"
B:"O'Neill's Dance Music of Ireland, 1490"
T: an casog glas.
Z:transcribed by John B. Walsh, 8/22/96
M:C|
L:1/8
K:D
D2 ((3FED) AD ((3FED)|ABcd edcA|D2 ((3FED) A2 d2|cAGF FDCE|
D2 ((3FED) AD ((3FED)|ABcd edcA|D2 ((3FED) A2 d2|cAGE (MED) D2 Hx||
f>d ((3.d.d.d) fddf|e>c ((3.c.c.c) efge|f>d ((3.d.d.d) fged|cAGE (MED) D2|
fede fedf|edcd efge|afge f2 ed|cAGE EDCE !D.C.!||


